svg/Frame-1261156460.svg

<svg width="49" height="71" viewBox="0 0 49 71" fill="none" xmlns="http://www.w3.org/2000/svg"><rect width="49" height="71" fill="#DADADA"/><mask id="path-2-inside-1_2483_15959" fill="white"><path d="M248.199 91.2002L-1191.8 91.2001L-1191.8 -17.7999L248.199 -17.7998L248.199 91.2002Z"/></mask><path d="M248.199 91.2002L-1191.8 91.2001L-1191.8 -17.7999L248.199 -17.7998L248.199 91.2002Z" fill="white"/><path d="M5.99934 61.2362H6.87534V68.4482H5.99934V61.2362ZM0.899344 62.3402C2.08334 61.5962 3.13534 60.7642 4.05534 59.8442C4.85534 59.0522 5.51534 58.2482 6.03534 57.4322H6.82734C7.45134 58.3842 8.19134 59.2722 9.04734 60.0962C9.91134 60.9202 10.8873 61.6682 11.9753 62.3402L11.4113 63.1922C10.4033 62.5282 9.49534 61.8162 8.68734 61.0562C8.23934 60.6402 7.82334 60.2122 7.43934 59.7722C7.06334 59.3322 6.72734 58.8882 6.43134 58.4402C5.91934 59.1842 5.29934 59.9202 4.57134 60.6482C3.63534 61.5842 2.60334 62.4202 1.47534 63.1562L0.899344 62.3402ZM13.0233 67.6442C13.8713 67.0362 14.5993 66.4002 15.2073 65.7362C15.8153 65.0642 16.3033 64.3802 16.6713 63.6842C17.0233 62.9962 17.2873 62.2482 17.4633 61.4402C17.6473 60.6242 17.7513 59.7202 17.7753 58.7282L17.7873 58.0922C17.7873 57.9962 17.7873 57.9042 17.7873 57.8162C17.7873 57.7282 17.7873 57.6482 17.7873 57.5762H18.6873C18.6953 57.8002 18.6953 58.0562 18.6873 58.3442C18.6793 58.6322 18.6713 58.8722 18.6633 59.0642C18.6393 60.9282 18.2353 62.6282 17.4513 64.1642C16.6673 65.7002 15.4073 67.1122 13.6713 68.4002L13.0233 67.6442ZM18.6033 58.5002C18.6353 60.7002 19.1953 62.6482 20.2833 64.3442C21.0913 65.5922 22.1793 66.7082 23.5473 67.6922L22.8993 68.4842C21.2353 67.1402 19.9873 65.7042 19.1553 64.1762C18.3233 62.6162 17.8793 60.8962 17.8233 59.0162L18.6033 58.5002ZM25.5312 59.7842H34.6752V64.7522H25.5312V59.7842ZM26.4192 60.6122V63.9242H33.7992V60.6122H26.4192ZM29.6592 57.4322H30.5352V68.4482H29.6592V57.4322ZM39.4792 59.8562H40.4032V66.2282C40.4032 66.4842 40.4312 66.6762 40.4872 66.8042C40.5432 66.9322 40.6352 67.0242 40.7632 67.0802C40.8912 67.1282 41.0792 67.1602 41.3272 67.1762C41.5192 67.1922 41.7272 67.2002 41.9512 67.2002C42.1752 67.2082 42.3912 67.2082 42.5992 67.2002L43.0072 67.1762C43.2232 67.1602 43.3952 67.1402 43.5232 67.1162C43.6592 67.0922 43.7592 67.0522 43.8232 66.9962C43.8952 66.9402 43.9512 66.8602 43.9912 66.7562C44.0312 66.6442 44.0552 66.5122 44.0632 66.3602C44.0872 66.1202 44.1112 65.8602 44.1352 65.5802C44.1592 65.2922 44.1792 65.0402 44.1952 64.8242L45.1312 65.1122C45.0672 65.8402 45.0112 66.3642 44.9632 66.6842C44.9312 66.9402 44.8752 67.1562 44.7952 67.3322C44.7152 67.5162 44.6112 67.6602 44.4832 67.7642C44.3472 67.8762 44.1632 67.9602 43.9312 68.0162C43.6992 68.0802 43.4112 68.1162 43.0672 68.1242C42.7552 68.1322 42.4472 68.1362 42.1432 68.1362C41.8472 68.1362 41.5512 68.1322 41.2552 68.1242C40.8072 68.1082 40.4552 68.0482 40.1992 67.9442C39.9512 67.8402 39.7672 67.6682 39.6472 67.4282C39.5352 67.1882 39.4792 66.8522 39.4792 66.4202V59.8562ZM45.4312 60.6962C45.7992 61.2962 46.1832 62.0402 46.5832 62.9282C47.0312 63.9682 47.3352 64.7562 47.4952 65.2922L46.6192 65.6882C46.4832 65.1522 46.1872 64.3642 45.7312 63.3242C45.3392 62.4202 44.9752 61.6642 44.6392 61.0562L45.4312 60.6962ZM41.2672 57.4442C41.6512 57.8762 42.1032 58.4522 42.6232 59.1722C43.0952 59.8122 43.5072 60.4282 43.8592 61.0202L43.0792 61.5962C42.8392 61.1562 42.4432 60.5362 41.8912 59.7362C41.4032 59.0082 40.9632 58.4242 40.5712 57.9842L41.2672 57.4442ZM36.4552 65.6522C36.7112 65.0042 36.9712 64.2282 37.2352 63.3242C37.5152 62.3402 37.7232 61.5442 37.8592 60.9362L38.7832 61.1522C38.5832 61.9762 38.3632 62.7922 38.1232 63.6002C37.8992 64.3682 37.6312 65.1522 37.3192 65.9522L36.4552 65.6522Z" fill="black"/><path d="M38.1992 0.100586C43.7773 0.100586 48.2988 4.62212 48.2988 10.2002V38.2002C48.2988 43.7783 43.7773 48.2998 38.1992 48.2998H10.1992C4.62114 48.2998 0.0996094 43.7783 0.0996094 38.2002V10.2002C0.0996094 4.62212 4.62114 0.100586 10.1992 0.100586H38.1992Z" fill="#F6F6F6"/><path d="M38.1992 0.100586C43.7773 0.100586 48.2988 4.62212 48.2988 10.2002V38.2002C48.2988 43.7783 43.7773 48.2998 38.1992 48.2998H10.1992C4.62114 48.2998 0.0996094 43.7783 0.0996094 38.2002V10.2002C0.0996094 4.62212 4.62114 0.100586 10.1992 0.100586H38.1992Z" stroke="#D4D4D8" stroke-width="0.2"/><g filter="url(#filter0_dii_2483_15959)"><path d="M24.2 39.8004C32.5947 39.8004 39.4 32.9951 39.4 24.6004C39.4 16.2057 32.5947 9.40039 24.2 9.40039C15.8053 9.40039 9 16.2057 9 24.6004C9 32.9951 15.8053 39.8004 24.2 39.8004Z" fill="#919191"/></g><g filter="url(#filter1_iii_2483_15959)"><path d="M24.1973 39.8002C28.7493 39.8002 32.8333 37.7962 35.6173 34.6242C34.8013 30.4482 30.0013 27.2402 24.1973 27.2402C18.3933 27.2402 13.5933 30.4482 12.7773 34.6242C15.5613 37.7962 19.6453 39.8002 24.1973 39.8002Z" fill="#D9D9D9"/><path d="M23.9973 25.4002C27.2005 25.4002 29.7973 22.893 29.7973 19.8002C29.7973 16.7074 27.2005 14.2002 23.9973 14.2002C20.794 14.2002 18.1973 16.7074 18.1973 19.8002C18.1973 22.893 20.794 25.4002 23.9973 25.4002Z" fill="#D9D9D9"/></g><defs><filter id="filter0_dii_2483_15959" x="8.53125" y="8.93164" width="32.8047" height="33.2749" filterUnits="userSpaceOnUse" color-interpolation-filters="sRGB"><feFlood flood-opacity="0" result="BackgroundImageFix"/><feColorMatrix in="SourceAlpha" type="matrix" values="0 0 0 0 0 0 0 0 0 0 0 0 0 0 0 0 0 0 127 0" result="hardAlpha"/><feOffset dx="0.9375" dy="1.40625"/><feGaussianBlur stdDeviation="0.5"/><feComposite in2="hardAlpha" operator="out"/><feColorMatrix type="matrix" values="0 0 0 0 0.394602 0 0 0 0 0.394602 0 0 0 0 0.394602 0 0 0 0.08 0"/><feBlend mode="normal" in2="BackgroundImageFix" result="effect1_dropShadow_2483_15959"/><feBlend mode="normal" in="SourceGraphic" in2="effect1_dropShadow_2483_15959" result="shape"/><feColorMatrix in="SourceAlpha" type="matrix" values="0 0 0 0 0 0 0 0 0 0 0 0 0 0 0 0 0 0 127 0" result="hardAlpha"/><feOffset dx="0.5" dy="0.5"/><feGaussianBlur stdDeviation="0.5"/><feComposite in2="hardAlpha" operator="arithmetic" k2="-1" k3="1"/><feColorMatrix type="matrix" values="0 0 0 0 0.109684 0 0 0 0 0.0922738 0 0 0 0 0.0922738 0 0 0 0.1 0"/><feBlend mode="normal" in2="shape" result="effect2_innerShadow_2483_15959"/><feColorMatrix in="SourceAlpha" type="matrix" values="0 0 0 0 0 0 0 0 0 0 0 0 0 0 0 0 0 0 127 0" result="hardAlpha"/><feOffset dx="-0.46875" dy="-0.46875"/><feGaussianBlur stdDeviation="0.5"/><feComposite in2="hardAlpha" operator="arithmetic" k2="-1" k3="1"/><feColorMatrix type="matrix" values="0 0 0 0 0 0 0 0 0 0 0 0 0 0 0 0 0 0 0.05 0"/><feBlend mode="normal" in2="effect2_innerShadow_2483_15959" result="effect3_innerShadow_2483_15959"/></filter><filter id="filter1_iii_2483_15959" x="12.3086" y="13.7314" width="23.7773" height="26.5376" filterUnits="userSpaceOnUse" color-interpolation-filters="sRGB"><feFlood flood-opacity="0" result="BackgroundImageFix"/><feBlend mode="normal" in="SourceGraphic" in2="BackgroundImageFix" result="shape"/><feColorMatrix in="SourceAlpha" type="matrix" values="0 0 0 0 0 0 0 0 0 0 0 0 0 0 0 0 0 0 127 0" result="hardAlpha"/><feOffset dx="0.46875" dy="0.46875"/><feGaussianBlur stdDeviation="0.703125"/><feComposite in2="hardAlpha" operator="arithmetic" k2="-1" k3="1"/><feColorMatrix type="matrix" values="0 0 0 0 0.121569 0 0 0 0 0.121569 0 0 0 0 0.117647 0 0 0 0.05 0"/><feBlend mode="normal" in2="shape" result="effect1_innerShadow_2483_15959"/><feColorMatrix in="SourceAlpha" type="matrix" values="0 0 0 0 0 0 0 0 0 0 0 0 0 0 0 0 0 0 127 0" result="hardAlpha"/><feOffset dx="-0.46875" dy="-0.46875"/><feGaussianBlur stdDeviation="0.703125"/><feComposite in2="hardAlpha" operator="arithmetic" k2="-1" k3="1"/><feColorMatrix type="matrix" values="0 0 0 0 0.121569 0 0 0 0 0.121569 0 0 0 0 0.117647 0 0 0 0.05 0"/><feBlend mode="normal" in2="effect1_innerShadow_2483_15959" result="effect2_innerShadow_2483_15959"/><feColorMatrix in="SourceAlpha" type="matrix" values="0 0 0 0 0 0 0 0 0 0 0 0 0 0 0 0 0 0 127 0" result="hardAlpha"/><feOffset dx="0.46875" dy="0.46875"/><feGaussianBlur stdDeviation="0.9375"/><feComposite in2="hardAlpha" operator="arithmetic" k2="-1" k3="1"/><feColorMatrix type="matrix" values="0 0 0 0 0.121569 0 0 0 0 0.121569 0 0 0 0 0.117647 0 0 0 0.05 0"/><feBlend mode="normal" in2="effect2_innerShadow_2483_15959" result="effect3_innerShadow_2483_15959"/></filter></defs></svg>

<svg fill="none" viewBox="0 0 49 71"><path fill="#DADADA" d="M0 0h49v71H0z"/><path fill="white" d="M248.199 91.2H-1191.8v-109H248.199z"/><path fill="black" d="M6 61.236h.875v7.212H6zM.9 62.34a18 18 0 0 0 3.155-2.496q1.2-1.188 1.98-2.412h.792q.936 1.428 2.22 2.664a17.7 17.7 0 0 0 2.928 2.244l-.564.852a20 20 0 0 1-2.724-2.136 17 17 0 0 1-1.248-1.284q-.564-.66-1.008-1.332a16 16 0 0 1-1.86 2.208 19.2 19.2 0 0 1-3.096 2.508zm12.123 5.304a14 14 0 0 0 2.184-1.908 10.2 10.2 0 0 0 1.464-2.052 9.2 9.2 0 0 0 .792-2.244q.276-1.224.312-2.712l.012-.636v-.516h.9q.012.336 0 .768a54 54 0 0 1-.024.72q-.036 2.796-1.212 5.1t-3.78 4.236zm5.58-9.144q.048 3.3 1.68 5.844 1.212 1.872 3.264 3.348l-.648.792q-2.496-2.016-3.744-4.308-1.248-2.34-1.332-5.16zm6.928 1.284h9.144v4.968h-9.144zm.888.828v3.312h7.38v-3.312zm3.24-3.18h.876v11.016h-.876zm9.82 2.424h.924v6.372q0 .384.084.576t.276.276q.192.072.564.096.288.024.624.024.336.012.648 0l.408-.024q.324-.024.516-.06a.6.6 0 0 0 .3-.12.54.54 0 0 0 .168-.24 1.4 1.4 0 0 0 .072-.396 56 56 0 0 0 .132-1.536l.936.288q-.096 1.092-.168 1.572a2.3 2.3 0 0 1-.168.648q-.12.276-.312.432a1.36 1.36 0 0 1-.552.252q-.348.096-.864.108a36 36 0 0 1-1.812 0q-.672-.024-1.056-.18a1.05 1.05 0 0 1-.552-.516q-.168-.36-.168-1.008zm5.952.84q.552.9 1.152 2.232.672 1.56.912 2.364l-.876.396q-.204-.804-.888-2.364a27 27 0 0 0-1.092-2.268zm-4.164-3.252q.576.648 1.356 1.728.708.96 1.236 1.848l-.78.576q-.36-.66-1.188-1.86-.732-1.092-1.32-1.752zm-4.812 8.208q.384-.972.78-2.328.42-1.476.624-2.388l.924.216q-.3 1.236-.66 2.448a28 28 0 0 1-.804 2.352z"/><path fill="#F6F6F6" d="M38.2.1c5.577 0 10.099 4.522 10.099 10.1v28c0 5.578-4.522 10.1-10.1 10.1h-28C4.621 48.3.1 43.778.1 38.2v-28C.1 4.622 4.622.1 10.2.1z"/><path stroke="#D4D4D8" stroke-width=".2" d="M38.2.1c5.577 0 10.099 4.522 10.099 10.1v28c0 5.578-4.522 10.1-10.1 10.1h-28C4.621 48.3.1 43.778.1 38.2v-28C.1 4.622 4.622.1 10.2.1z"/><g filter="url(#a)"><path fill="#919191" d="M24.2 39.8c8.395 0 15.2-6.805 15.2-15.2S32.595 9.4 24.2 9.4 9 16.206 9 24.6c0 8.395 6.805 15.2 15.2 15.2"/></g><g fill="#D9D9D9" filter="url(#b)"><path d="M24.197 39.8c4.552 0 8.636-2.004 11.42-5.176-.816-4.176-5.616-7.384-11.42-7.384s-10.604 3.208-11.42 7.384a15.15 15.15 0 0 0 11.42 5.176"/><path d="M23.997 25.4c3.204 0 5.8-2.507 5.8-5.6s-2.596-5.6-5.8-5.6-5.8 2.507-5.8 5.6 2.597 5.6 5.8 5.6"/></g><defs><filter id="a" width="32.805" height="33.275" x="8.531" y="8.932" color-interpolation-filters="sRGB" filterUnits="userSpaceOnUse"><feFlood flood-opacity="0" result="BackgroundImageFix"/><feColorMatrix in="SourceAlpha" result="hardAlpha" type="matrix" values="0 0 0 0 0 0 0 0 0 0 0 0 0 0 0 0 0 0 127 0"/><feOffset dx=".938" dy="1.406"/><feGaussianBlur stdDeviation=".5"/><feComposite in2="hardAlpha" operator="out"/><feColorMatrix type="matrix" values="0 0 0 0 0.394602 0 0 0 0 0.394602 0 0 0 0 0.394602 0 0 0 0.08 0"/><feBlend in2="BackgroundImageFix" mode="normal" result="effect1_dropShadow_2483_15959"/><feBlend in="SourceGraphic" in2="effect1_dropShadow_2483_15959" mode="normal" result="shape"/><feColorMatrix in="SourceAlpha" result="hardAlpha" type="matrix" values="0 0 0 0 0 0 0 0 0 0 0 0 0 0 0 0 0 0 127 0"/><feOffset dx=".5" dy=".5"/><feGaussianBlur stdDeviation=".5"/><feComposite in2="hardAlpha" k2="-1" k3="1" operator="arithmetic"/><feColorMatrix type="matrix" values="0 0 0 0 0.109684 0 0 0 0 0.0922738 0 0 0 0 0.0922738 0 0 0 0.1 0"/><feBlend in2="shape" mode="normal" result="effect2_innerShadow_2483_15959"/><feColorMatrix in="SourceAlpha" result="hardAlpha" type="matrix" values="0 0 0 0 0 0 0 0 0 0 0 0 0 0 0 0 0 0 127 0"/><feOffset dx="-.469" dy="-.469"/><feGaussianBlur stdDeviation=".5"/><feComposite in2="hardAlpha" k2="-1" k3="1" operator="arithmetic"/><feColorMatrix type="matrix" values="0 0 0 0 0 0 0 0 0 0 0 0 0 0 0 0 0 0 0.05 0"/><feBlend in2="effect2_innerShadow_2483_15959" mode="normal" result="effect3_innerShadow_2483_15959"/></filter><filter id="b" width="23.777" height="26.538" x="12.309" y="13.731" color-interpolation-filters="sRGB" filterUnits="userSpaceOnUse"><feFlood flood-opacity="0" result="BackgroundImageFix"/><feBlend in="SourceGraphic" in2="BackgroundImageFix" mode="normal" result="shape"/><feColorMatrix in="SourceAlpha" result="hardAlpha" type="matrix" values="0 0 0 0 0 0 0 0 0 0 0 0 0 0 0 0 0 0 127 0"/><feOffset dx=".469" dy=".469"/><feGaussianBlur stdDeviation=".703"/><feComposite in2="hardAlpha" k2="-1" k3="1" operator="arithmetic"/><feColorMatrix type="matrix" values="0 0 0 0 0.121569 0 0 0 0 0.121569 0 0 0 0 0.117647 0 0 0 0.05 0"/><feBlend in2="shape" mode="normal" result="effect1_innerShadow_2483_15959"/><feColorMatrix in="SourceAlpha" result="hardAlpha" type="matrix" values="0 0 0 0 0 0 0 0 0 0 0 0 0 0 0 0 0 0 127 0"/><feOffset dx="-.469" dy="-.469"/><feGaussianBlur stdDeviation=".703"/><feComposite in2="hardAlpha" k2="-1" k3="1" operator="arithmetic"/><feColorMatrix type="matrix" values="0 0 0 0 0.121569 0 0 0 0 0.121569 0 0 0 0 0.117647 0 0 0 0.05 0"/><feBlend in2="effect1_innerShadow_2483_15959" mode="normal" result="effect2_innerShadow_2483_15959"/><feColorMatrix in="SourceAlpha" result="hardAlpha" type="matrix" values="0 0 0 0 0 0 0 0 0 0 0 0 0 0 0 0 0 0 127 0"/><feOffset dx=".469" dy=".469"/><feGaussianBlur stdDeviation=".938"/><feComposite in2="hardAlpha" k2="-1" k3="1" operator="arithmetic"/><feColorMatrix type="matrix" values="0 0 0 0 0.121569 0 0 0 0 0.121569 0 0 0 0 0.117647 0 0 0 0.05 0"/><feBlend in2="effect2_innerShadow_2483_15959" mode="normal" result="effect3_innerShadow_2483_15959"/></filter></defs></svg>
